X: 39979
T: Three Deer And A Hare
R: jig
M: 6/8
K: Ddorian
|:A|dcA AGE|D/E/FD DCA,|CDE GAB|cec Afe|
dcA AGE|D/E/FD DCA,|CEG cGE|DED D2:|
|:A|~d3 ecA|AGA cde|dcA AGE|DB,A, CA,G,|
A,2 C CA,G,|~A,3 CDE|GcA GEC|DED D2:|

